X:4483
L:1/8
M:4/4
K:C
 BEA |[M:2/2][K:A]SOSOO .!fermata!PMTuCOMaf | e>c (3ccc fcdf | edcA BEGB | edcB Aaga | befg agaf | 
 edca fcdf | edcA BEGB | edcB Aaga | fdBd cAA || e | agae cefg | agba gaef | agae cdeg | 
 fdBd cAAe | (ag)(gf) (fe)(ec) | dfec dcBA | GABd cefa | gbeg a2 |]

